public/assets/icons/home/planning-check.svg

<svg xmlns="http://www.w3.org/2000/svg" zoomAndPan="magnify"
     viewBox="360 170 240 250" preserveAspectRatio="xMidYMid meet" version="1.0">
    <defs>
        <clipPath id="374230938e">
            <path d="M 367 174.167969 L 593 174.167969 L 593 404.417969 L 367 404.417969 Z M 367 174.167969 "
                  clip-rule="nonzero"/>
        </clipPath>
    </defs>
    <g clip-path="url(#374230938e)">
        <path fill="#225378"
              d="M 387.699219 253.859375 L 572.667969 253.859375 L 583.398438 380.578125 C 583.769531 384.953125 582.652344 388.628906 580.640625 391.101562 C 578.625 393.582031 575.816406 395.066406 571.660156 395.066406 L 388.707031 395.066406 C 384.554688 395.066406 381.742188 393.582031 379.726562 391.101562 C 377.714844 388.628906 376.582031 384.953125 376.953125 380.578125 Z M 514.253906 184.101562 C 516.058594 184.011719 517.90625 184.453125 519.734375 185.441406 C 523.625 187.53125 526.886719 192.40625 528.058594 198.425781 L 518.671875 198.425781 C 512.058594 198.113281 512.058594 208.207031 518.671875 207.871094 L 554.902344 207.871094 C 559.539062 207.871094 563.113281 209.046875 565.519531 210.945312 C 567.902344 212.828125 569.414062 215.449219 569.785156 219.8125 L 571.871094 244.402344 L 388.5 244.402344 L 390.589844 219.8125 C 390.945312 215.449219 392.46875 212.828125 394.851562 210.945312 C 397.238281 209.046875 400.832031 207.871094 405.472656 207.871094 L 422.71875 207.871094 C 422.980469 209.828125 423.375 211.761719 423.96875 213.664062 C 427.285156 224 435.550781 231.5625 445.410156 231.5625 C 452.035156 231.878906 452.035156 221.789062 445.410156 222.101562 C 440.457031 222.101562 435.347656 218.15625 432.980469 210.777344 C 430.617188 203.417969 432.089844 194.605469 436.203125 189.300781 C 438.773438 185.964844 441.679688 184.269531 444.695312 184.101562 C 446.523438 184.015625 448.371094 184.457031 450.195312 185.445312 C 454.085938 187.53125 457.347656 192.410156 458.519531 198.429688 L 443.074219 198.429688 C 436.777344 198.429688 436.703125 207.875 443.113281 207.875 L 492.253906 207.875 C 492.527344 209.832031 492.90625 211.765625 493.523438 213.664062 C 496.816406 224.003906 505.085938 231.566406 514.941406 231.566406 C 521.566406 231.882812 521.566406 221.792969 514.941406 222.105469 C 509.988281 222.105469 504.878906 218.15625 502.511719 210.78125 C 500.148438 203.421875 501.621094 194.609375 505.734375 189.304688 C 508.308594 185.964844 511.234375 184.265625 514.253906 184.101562 Z M 446.894531 174.863281 C 446.023438 174.804688 445.125 174.804688 444.25 174.863281 C 443.078125 174.953125 441.921875 175.136719 440.769531 175.4375 C 436.1875 176.59375 431.886719 179.386719 428.699219 183.503906 C 425.378906 187.789062 423.386719 192.988281 422.664062 198.421875 L 405.472656 198.421875 C 399.246094 198.421875 393.453125 199.984375 388.988281 203.511719 C 384.535156 207.050781 381.703125 212.542969 381.144531 219.023438 L 367.511719 379.792969 C 366.953125 386.257812 368.625 392.40625 372.371094 397.027344 C 376.101562 401.664062 382.003906 404.554688 388.707031 404.554688 L 571.664062 404.554688 C 578.367188 404.554688 584.253906 401.664062 588 397.027344 C 591.742188 392.40625 593.382812 386.257812 592.84375 379.792969 L 579.207031 219.023438 C 578.664062 212.542969 575.832031 207.050781 571.367188 203.511719 C 566.914062 199.988281 561.121094 198.421875 554.898438 198.421875 L 537.664062 198.421875 C 536.4375 189.238281 531.742188 181.136719 524.199219 177.09375 C 519.785156 174.730469 514.886719 174.265625 510.304688 175.4375 C 505.722656 176.59375 501.421875 179.386719 498.234375 183.503906 C 494.933594 187.789062 492.929688 192.988281 492.179688 198.421875 L 468.113281 198.421875 C 466.902344 189.238281 462.191406 181.136719 454.648438 177.09375 C 452.171875 175.773438 449.542969 175.03125 446.894531 174.863281 Z M 446.894531 174.863281 "
              fill-opacity="1" fill-rule="evenodd"/>
    </g>
    <path fill="#225378"
          d="M 522.152344 286.328125 L 529.230469 293.40625 C 530.460938 294.652344 530.574219 297.335938 528.296875 299.609375 L 466.105469 361.820312 C 465.132812 362.769531 462.003906 362.996094 460.8125 361.820312 L 432.03125 333.042969 C 429.757812 330.769531 429.871094 328.066406 431.121094 326.835938 L 438.199219 319.757812 C 439.445312 318.511719 442.128906 318.398438 444.402344 320.671875 L 460.109375 336.394531 C 461.949219 338.234375 464.96875 338.234375 466.8125 336.394531 L 515.953125 287.253906 C 518.464844 284.742188 520.566406 284.742188 522.152344 286.328125 Z M 518.257812 275.820312 C 514.664062 276.28125 511.648438 278.183594 509.242188 280.570312 L 463.457031 326.355469 L 451.109375 314.003906 C 445.726562 308.625 436.878906 307.671875 431.496094 313.058594 L 424.414062 320.140625 C 419.019531 325.519531 419.949219 334.347656 425.332031 339.753906 L 454.109375 368.492188 C 459.417969 373.800781 467.761719 373.542969 472.8125 368.492188 L 534.988281 306.316406 C 540.367188 300.933594 541.300781 292.105469 535.898438 286.703125 L 528.859375 279.621094 C 525.914062 276.675781 521.855469 275.355469 518.257812 275.820312 Z M 518.257812 275.820312 "
          fill-opacity="1" fill-rule="nonzero"/>
</svg>

<svg xmlns="http://www.w3.org/2000/svg" version="1.0" viewBox="360 170 240 250">
    <defs>
        <clipPath id="a">
            <path d="M367 174.17h226v230.25H367Zm0 0"/>
        </clipPath>
    </defs>
    <g clip-path="url(#a)">
        <path fill="#225378" fill-rule="evenodd" d="M387.7 253.86h184.97l10.73 126.72c.37 4.37-.75 8.05-2.76 10.52-2.01 2.48-4.82 3.97-8.98 3.97H388.71c-4.16 0-6.97-1.49-8.98-3.97-2.02-2.47-3.15-6.15-2.78-10.52Zm126.55-69.76c1.8-.09 3.66.35 5.48 1.34 3.9 2.1 7.16 6.97 8.33 12.99h-9.39c-6.61-.32-6.61 9.78 0 9.44h36.23c4.64 0 8.21 1.18 10.62 3.08 2.38 1.88 3.9 4.5 4.27 8.86l2.08 24.6H388.5l2.09-24.6c.36-4.36 1.88-6.98 4.26-8.86 2.39-1.9 5.98-3.08 10.62-3.08h17.25c.26 1.96.65 3.9 1.25 5.8 3.32 10.33 11.58 17.9 21.44 17.9 6.63.3 6.63-9.78 0-9.47-4.95 0-10.06-3.94-12.43-11.32-2.36-7.36-.89-16.17 3.22-21.48 2.57-3.34 5.48-5.03 8.5-5.2 1.82-.08 3.67.36 5.5 1.35 3.89 2.08 7.15 6.96 8.32 12.98h-15.45c-6.3 0-6.37 9.44.04 9.44h49.14c.28 1.96.66 3.9 1.27 5.8 3.3 10.33 11.57 17.9 21.42 17.9 6.63.31 6.63-9.78 0-9.46-4.95 0-10.06-3.95-12.43-11.33-2.36-7.36-.89-16.17 3.22-21.48 2.58-3.34 5.5-5.03 8.52-5.2Zm-67.36-9.24a19.67 19.67 0 0 0-6.13.57 22.3 22.3 0 0 0-12.06 8.07 30.94 30.94 0 0 0-6.04 14.92h-17.19c-6.22 0-12.02 1.56-16.48 5.1-4.45 3.53-7.29 9.02-7.85 15.5L367.51 379.8c-.56 6.47 1.12 12.62 4.86 17.24 3.73 4.63 9.63 7.52 16.34 7.52h182.95c6.7 0 12.6-2.89 16.34-7.52 3.74-4.62 5.38-10.77 4.84-17.24l-13.63-160.77c-.55-6.48-3.38-11.97-7.84-15.5-4.46-3.53-10.25-5.1-16.47-5.1h-17.24c-1.22-9.18-5.92-17.28-13.46-21.33a19.15 19.15 0 0 0-13.9-1.65 22.3 22.3 0 0 0-12.07 8.06 31.43 31.43 0 0 0-6.05 14.92h-24.07c-1.2-9.18-5.92-17.28-13.46-21.33a19 19 0 0 0-7.76-2.23Zm0 0"/>
    </g>
    <path fill="#225378" d="m522.15 286.33 7.08 7.08c1.23 1.24 1.34 3.93-.93 6.2l-62.2 62.21c-.97.95-4.1 1.18-5.29 0l-28.78-28.78c-2.27-2.27-2.16-4.97-.9-6.2l7.07-7.08c1.25-1.25 3.93-1.36 6.2.91l15.7 15.72a4.76 4.76 0 0 0 6.71 0l49.14-49.14c2.51-2.5 4.62-2.5 6.2-.92Zm-3.9-10.51c-3.59.46-6.6 2.36-9 4.75l-45.8 45.79L451.12 314c-5.38-5.38-14.23-6.33-19.61-.94l-7.09 7.08c-5.39 5.38-4.46 14.2.92 19.61l28.78 28.74a13.2 13.2 0 0 0 18.7 0L535 306.32c5.38-5.39 6.31-14.21.9-19.62l-7.03-7.08c-2.95-2.94-7-4.26-10.6-3.8Zm0 0"/>
</svg>
